Icons/br_com_organizze_android.svg

<svg viewBox="0 0 48 48" xmlns:xlink="http://www.w3.org/1999/xlink">
 <defs>
  <linearGradient id="0">
   <stop stop-opacity="0"/>
   <stop offset="1"/>
  </linearGradient>
  <linearGradient xlink:href="#0" id="1" gradientUnits="userSpaceOnUse" gradientTransform="translate(4e-7,-48)" y1="47" x2="0" y2="1"/>
  <clipPath id="2">
   <g transform="translate(0,-1004.3622)">
    <rect rx="4" y="1005.36" x="1" height="46" width="46" fill="#1890d0"/>
   </g>
  </clipPath>
  <clipPath id="3">
   <g transform="translate(0,-1004.3622)">
    <rect rx="4" y="1005.36" x="1" height="46" width="46" fill="#1890d0"/>
   </g>
  </clipPath>
 </defs>
 <g>
  <g transform="translate(0,-1004.3622)">
   <path d="m 5,1006.3622 c -2.216,0 -4,1.784 -4,4 l 0,37.25 c 0,2.216 1.784,4 4,4 l 38,0 c 2.216,0 4,-1.784 4,-4 l 0,-37.25 c 0,-2.216 -1.784,-4 -4,-4 l -38,0 z m -4,41.5 0,0.5 c 0,2.216 1.784,4 4,4 l 38,0 c 2.216,0 4,-1.784 4,-4 l 0,-0.5 c 0,2.216 -1.784,4 -4,4 l -38,0 c -2.216,0 -4,-1.784 -4,-4 z" opacity="0.02"/>
   <path d="m 1,1047.6122 0,0.25 c 0,2.216 1.784,4 4,4 l 38,0 c 2.216,0 4,-1.784 4,-4 l 0,-0.25 c 0,2.216 -1.784,4 -4,4 l -38,0 c -2.216,0 -4,-1.784 -4,-4 z" opacity="0.05"/>
   <rect width="46" height="46" x="1" y="1005.61" rx="4" opacity="0.1"/>
  </g>
 </g>
 <g>
  <g transform="translate(0,-1004.3622)">
   <rect rx="4" y="1005.36" x="1" height="46" width="46" fill="#00c9d4"/>
  </g>
 </g>
 <g>
  <rect transform="scale(1,-1)" width="46" height="46" x="1" y="-46.998" rx="4" opacity="0.1" fill="url(#1)"/>
 </g>
 <g>
  <g clip-path="url(#2)">
   <g opacity="0.1">
    <g>
     <path d="M 23.535156 9.003906 C 22.304688 9.023438 21.128906 9.128906 20.429688 9.320312 C 17.648438 10.074219 15.828125 11.078125 13.785156 12.984375 C 10.234375 16.300781 8.671875 20.421875 9.058594 25.445312 C 9.195312 27.25 10.074219 30.015625 11.003906 31.546875 C 12.945312 34.761719 15.757812 37.023438 19.273438 38.183594 C 20.929688 38.734375 23.277344 39.09375 24.40625 38.976562 C 24.699219 38.945312 25.449219 38.875 26.070312 38.816406 C 27.636719 38.667969 29.289062 38.128906 31.164062 37.160156 C 32.476562 36.484375 33.089844 36.011719 34.546875 34.558594 C 36.84375 32.261719 37.839844 30.578125 38.679688 27.527344 C 39.117188 25.945312 39.105469 21.886719 38.65625 20.273438 C 37.148438 14.808594 33.179688 10.851562 27.699219 9.335938 C 26.796875 9.089844 25.117188 8.976562 23.535156 9.003906 Z M 22.789062 14.660156 C 23 14.640625 23.613281 14.734375 24.269531 14.886719 C 25.425781 15.160156 25.65625 15.273438 25.800781 15.664062 C 25.941406 16.027344 26.199219 16.1875 27.085938 16.441406 C 28.230469 16.769531 29.753906 17.648438 30.078125 18.171875 C 30.222656 18.40625 30.050781 18.742188 29.242188 19.8125 C 28.683594 20.554688 28.144531 21.160156 28.046875 21.160156 C 27.949219 21.160156 27.382812 20.914062 26.785156 20.617188 C 25.347656 19.894531 23.925781 19.644531 22.984375 19.949219 C 22.46875 20.121094 22.257812 20.296875 22.21875 20.589844 C 22.144531 21.097656 22.703125 21.339844 25.273438 21.949219 C 29.25 22.882812 30.730469 24.21875 30.722656 26.851562 C 30.714844 29.234375 29.164062 31.128906 26.675781 31.796875 C 26.101562 31.949219 25.917969 32.082031 25.917969 32.355469 C 25.917969 32.957031 25.582031 33.40625 25.15625 33.371094 C 24.941406 33.355469 24.367188 33.308594 23.878906 33.269531 C 22.867188 33.195312 22.539062 32.988281 22.539062 32.441406 C 22.539062 32.109375 22.335938 31.992188 21.160156 31.652344 C 19.699219 31.226562 17.382812 29.984375 17.382812 29.621094 C 17.382812 29.304688 19.316406 26.484375 19.535156 26.484375 C 19.636719 26.484375 19.992188 26.6875 20.324219 26.9375 C 21.761719 28.035156 24.949219 28.632812 25.878906 27.980469 C 26.371094 27.640625 26.402344 26.914062 25.9375 26.667969 C 25.746094 26.566406 24.582031 26.242188 23.351562 25.953125 C 20.730469 25.328125 19.609375 24.808594 18.765625 23.828125 C 17.570312 22.433594 17.417969 20.75 18.320312 19.007812 C 18.972656 17.757812 19.898438 16.941406 21.238281 16.445312 C 22.378906 16.027344 22.539062 15.882812 22.539062 15.292969 C 22.539062 15.019531 22.621094 14.738281 22.722656 14.675781 C 22.734375 14.667969 22.761719 14.664062 22.789062 14.660156 Z M 22.789062 14.660156 "/>
    </g>
   </g>
  </g>
 </g>
 <g>
  <g clip-path="url(#3)">
   <g transform="translate(0,-1)">
    <g>
     <path d="M 23.535156 9.003906 C 22.304688 9.023438 21.128906 9.128906 20.429688 9.320312 C 17.648438 10.074219 15.828125 11.078125 13.785156 12.984375 C 10.234375 16.300781 8.671875 20.421875 9.058594 25.445312 C 9.195312 27.25 10.074219 30.015625 11.003906 31.546875 C 12.945312 34.761719 15.757812 37.023438 19.273438 38.183594 C 20.929688 38.734375 23.277344 39.09375 24.40625 38.976562 C 24.699219 38.945312 25.449219 38.875 26.070312 38.816406 C 27.636719 38.667969 29.289062 38.128906 31.164062 37.160156 C 32.476562 36.484375 33.089844 36.011719 34.546875 34.558594 C 36.84375 32.261719 37.839844 30.578125 38.679688 27.527344 C 39.117188 25.945312 39.105469 21.886719 38.65625 20.273438 C 37.148438 14.808594 33.179688 10.851562 27.699219 9.335938 C 26.796875 9.089844 25.117188 8.976562 23.535156 9.003906 Z M 22.789062 14.660156 C 23 14.640625 23.613281 14.734375 24.269531 14.886719 C 25.425781 15.160156 25.65625 15.273438 25.800781 15.664062 C 25.941406 16.027344 26.199219 16.1875 27.085938 16.441406 C 28.230469 16.769531 29.753906 17.648438 30.078125 18.171875 C 30.222656 18.40625 30.050781 18.742188 29.242188 19.8125 C 28.683594 20.554688 28.144531 21.160156 28.046875 21.160156 C 27.949219 21.160156 27.382812 20.914062 26.785156 20.617188 C 25.347656 19.894531 23.925781 19.644531 22.984375 19.949219 C 22.46875 20.121094 22.257812 20.296875 22.21875 20.589844 C 22.144531 21.097656 22.703125 21.339844 25.273438 21.949219 C 29.25 22.882812 30.730469 24.21875 30.722656 26.851562 C 30.714844 29.234375 29.164062 31.128906 26.675781 31.796875 C 26.101562 31.949219 25.917969 32.082031 25.917969 32.355469 C 25.917969 32.957031 25.582031 33.40625 25.15625 33.371094 C 24.941406 33.355469 24.367188 33.308594 23.878906 33.269531 C 22.867188 33.195312 22.539062 32.988281 22.539062 32.441406 C 22.539062 32.109375 22.335938 31.992188 21.160156 31.652344 C 19.699219 31.226562 17.382812 29.984375 17.382812 29.621094 C 17.382812 29.304688 19.316406 26.484375 19.535156 26.484375 C 19.636719 26.484375 19.992188 26.6875 20.324219 26.9375 C 21.761719 28.035156 24.949219 28.632812 25.878906 27.980469 C 26.371094 27.640625 26.402344 26.914062 25.9375 26.667969 C 25.746094 26.566406 24.582031 26.242188 23.351562 25.953125 C 20.730469 25.328125 19.609375 24.808594 18.765625 23.828125 C 17.570312 22.433594 17.417969 20.75 18.320312 19.007812 C 18.972656 17.757812 19.898438 16.941406 21.238281 16.445312 C 22.378906 16.027344 22.539062 15.882812 22.539062 15.292969 C 22.539062 15.019531 22.621094 14.738281 22.722656 14.675781 C 22.734375 14.667969 22.761719 14.664062 22.789062 14.660156 Z M 22.789062 14.660156 " fill="#f9f9f9"/>
    </g>
   </g>
  </g>
 </g>
 <g>
  <g transform="translate(0,-1004.3622)">
   <path d="m 1,1043.3622 0,4 c 0,2.216 1.784,4 4,4 l 38,0 c 2.216,0 4,-1.784 4,-4 l 0,-4 c 0,2.216 -1.784,4 -4,4 l -38,0 c -2.216,0 -4,-1.784 -4,-4 z" opacity="0.1"/>
  </g>
 </g>
</svg>

<svg viewBox="0 0 48 48"><defs><linearGradient id="linearGradient3764" x1="1" x2="47" gradientUnits="userSpaceOnUse" gradientTransform="translate(-48.000001,0.00221467)"><stop stop-color="#00b5c0" stop-opacity="1"/><stop offset="1" stop-color="#00c9d4" stop-opacity="1"/></linearGradient><clipPath id="clipPath-805468483"><g transform="translate(0,-1004.3622)"><rect rx="4" y="1005.36" x="1" height="46" width="46" fill="#1890d0"/></g></clipPath><clipPath id="clipPath-835280631"><g transform="translate(0,-1004.3622)"><rect rx="4" y="1005.36" x="1" height="46" width="46" fill="#1890d0"/></g></clipPath></defs><g><path d="m 1 43 l 0 0.25 c 0 2.216 1.784 4 4 4 l 38 0 c 2.216 0 4 -1.784 4 -4 l 0 -0.25 c 0 2.216 -1.784 4 -4 4 l -38 0 c -2.216 0 -4 -1.784 -4 -4 z m 0 0.5 l 0 0.5 c 0 2.216 1.784 4 4 4 l 38 0 c 2.216 0 4 -1.784 4 -4 l 0 -0.5 c 0 2.216 -1.784 4 -4 4 l -38 0 c -2.216 0 -4 -1.784 -4 -4 z" opacity="0.02"/><path d="m 1 43.25 l 0 0.25 c 0 2.216 1.784 4 4 4 l 38 0 c 2.216 0 4 -1.784 4 -4 l 0 -0.25 c 0 2.216 -1.784 4 -4 4 l -38 0 c -2.216 0 -4 -1.784 -4 -4 z" opacity="0.05"/><path d="m 1 43 l 0 0.25 c 0 2.216 1.784 4 4 4 l 38 0 c 2.216 0 4 -1.784 4 -4 l 0 -0.25 c 0 2.216 -1.784 4 -4 4 l -38 0 c -2.216 0 -4 -1.784 -4 -4 z" opacity="0.1"/></g><g><rect width="46" height="46" x="-47" y="1" rx="4" transform="matrix(0,-1,1,0,0,0)" fill="url(#linearGradient3764)" fill-opacity="1"/></g><g><g clip-path="url(#clipPath-805468483)"><g opacity="0.1"><!-- color: #00c9d4 --><g><path d="m 23.535 9 c -1.23 0.02 -2.406 0.125 -3.105 0.316 c -2.781 0.754 -4.602 1.758 -6.645 3.664 c -3.551 3.316 -5.113 7.438 -4.727 12.461 c 0.137 1.805 1.016 4.57 1.945 6.102 c 1.941 3.215 4.754 5.477 8.27 6.637 c 1.656 0.551 4 0.91 5.133 0.793 c 0.293 -0.031 1.043 -0.102 1.664 -0.16 c 1.566 -0.148 3.219 -0.688 5.094 -1.656 c 1.313 -0.676 1.926 -1.148 3.383 -2.602 c 2.297 -2.297 3.293 -3.98 4.133 -7.03 c 0.438 -1.582 0.426 -5.641 -0.023 -7.254 c -1.508 -5.465 -5.477 -9.422 -10.957 -10.937 c -0.902 -0.246 -2.582 -0.359 -4.164 -0.332 m -0.746 5.656 c 0.211 -0.02 0.824 0.074 1.48 0.227 c 1.156 0.273 1.387 0.387 1.531 0.777 c 0.141 0.363 0.398 0.523 1.285 0.777 c 1.145 0.328 2.668 1.207 2.992 1.73 c 0.145 0.234 -0.027 0.57 -0.836 1.641 c -0.559 0.742 -1.098 1.348 -1.195 1.348 c -0.098 0 -0.664 -0.246 -1.262 -0.543 c -1.438 -0.723 -2.859 -0.973 -3.801 -0.668 c -0.516 0.172 -0.727 0.348 -0.766 0.641 c -0.074 0.508 0.484 0.75 3.055 1.359 c 3.977 0.934 5.457 2.27 5.449 4.902 c -0.008 2.383 -1.559 4.277 -4.047 4.945 c -0.574 0.152 -0.758 0.285 -0.758 0.559 c 0 0.602 -0.336 1.051 -0.762 1.016 c -0.215 -0.016 -0.789 -0.063 -1.277 -0.102 c -1.012 -0.074 -1.34 -0.281 -1.34 -0.828 c 0 -0.332 -0.203 -0.449 -1.379 -0.789 c -1.461 -0.426 -3.777 -1.668 -3.777 -2.031 c 0 -0.316 1.934 -3.137 2.152 -3.137 c 0.102 0 0.457 0.203 0.789 0.453 c 1.438 1.098 4.625 1.695 5.555 1.043 c 0.492 -0.34 0.523 -1.066 0.059 -1.313 c -0.191 -0.102 -1.355 -0.426 -2.586 -0.715 c -2.621 -0.625 -3.742 -1.145 -4.586 -2.125 c -1.195 -1.395 -1.348 -3.078 -0.445 -4.82 c 0.652 -1.25 1.578 -2.066 2.918 -2.563 c 1.141 -0.418 1.301 -0.563 1.301 -1.152 c 0 -0.273 0.082 -0.555 0.184 -0.617 c 0.012 -0.008 0.039 -0.012 0.066 -0.016 m 0 0" fill="#000"/></g></g></g></g><g><g clip-path="url(#clipPath-835280631)"><g transform="translate(0,-1)"><!-- color: #00c9d4 --><g><path d="m 23.535 9 c -1.23 0.02 -2.406 0.125 -3.105 0.316 c -2.781 0.754 -4.602 1.758 -6.645 3.664 c -3.551 3.316 -5.113 7.438 -4.727 12.461 c 0.137 1.805 1.016 4.57 1.945 6.102 c 1.941 3.215 4.754 5.477 8.27 6.637 c 1.656 0.551 4 0.91 5.133 0.793 c 0.293 -0.031 1.043 -0.102 1.664 -0.16 c 1.566 -0.148 3.219 -0.688 5.094 -1.656 c 1.313 -0.676 1.926 -1.148 3.383 -2.602 c 2.297 -2.297 3.293 -3.98 4.133 -7.03 c 0.438 -1.582 0.426 -5.641 -0.023 -7.254 c -1.508 -5.465 -5.477 -9.422 -10.957 -10.937 c -0.902 -0.246 -2.582 -0.359 -4.164 -0.332 m -0.746 5.656 c 0.211 -0.02 0.824 0.074 1.48 0.227 c 1.156 0.273 1.387 0.387 1.531 0.777 c 0.141 0.363 0.398 0.523 1.285 0.777 c 1.145 0.328 2.668 1.207 2.992 1.73 c 0.145 0.234 -0.027 0.57 -0.836 1.641 c -0.559 0.742 -1.098 1.348 -1.195 1.348 c -0.098 0 -0.664 -0.246 -1.262 -0.543 c -1.438 -0.723 -2.859 -0.973 -3.801 -0.668 c -0.516 0.172 -0.727 0.348 -0.766 0.641 c -0.074 0.508 0.484 0.75 3.055 1.359 c 3.977 0.934 5.457 2.27 5.449 4.902 c -0.008 2.383 -1.559 4.277 -4.047 4.945 c -0.574 0.152 -0.758 0.285 -0.758 0.559 c 0 0.602 -0.336 1.051 -0.762 1.016 c -0.215 -0.016 -0.789 -0.063 -1.277 -0.102 c -1.012 -0.074 -1.34 -0.281 -1.34 -0.828 c 0 -0.332 -0.203 -0.449 -1.379 -0.789 c -1.461 -0.426 -3.777 -1.668 -3.777 -2.031 c 0 -0.316 1.934 -3.137 2.152 -3.137 c 0.102 0 0.457 0.203 0.789 0.453 c 1.438 1.098 4.625 1.695 5.555 1.043 c 0.492 -0.34 0.523 -1.066 0.059 -1.313 c -0.191 -0.102 -1.355 -0.426 -2.586 -0.715 c -2.621 -0.625 -3.742 -1.145 -4.586 -2.125 c -1.195 -1.395 -1.348 -3.078 -0.445 -4.82 c 0.652 -1.25 1.578 -2.066 2.918 -2.563 c 1.141 -0.418 1.301 -0.563 1.301 -1.152 c 0 -0.273 0.082 -0.555 0.184 -0.617 c 0.012 -0.008 0.039 -0.012 0.066 -0.016 m 0 0" fill="#f9f9f9"/></g></g></g></g><g><g transform="translate(0,-1004.3622)"><path d="m 1 1043.36 0 4 c 0 2.216 1.784 4 4 4 l 38 0 c 2.216 0 4 -1.784 4 -4 l 0 -4 c 0 2.216 -1.784 4 -4 4 l -38 0 c -2.216 0 -4 -1.784 -4 -4 z" opacity="0.1"/></g></g></svg>
